;FLAVOR:Marlin
;TIME:37544
;Filament used: 33.9146m
;Layer height: 0.2
;MINX:3.354
;MINY:13.565
;MINZ:0.2
;MAXX:288.314
;MAXY:286.479
;MAXZ:19.2
;Generated with Cura_SteamEngine 4.8.0
M140 S60
M105
M190 S60
M104 S200
M105
M109 S200
M82 ;absolute extrusion mode
; LONGER Start G-code
G21 ; metric values
G90 ; absolute positioning
M82 ; set extruder to absolute mode
M107 ; start with the fan off
G92 E0 ; Reset Extruder
G28 ; Home all axes
G1 Z2.0 F3000 ; Move Z Axis up little to prevent scratching of Heat Bed
G1 X0.1 Y20 Z0.3 F5000.0 ; Move to start position
G1 X0.1 Y200.0 Z0.3 F1500.0 E15 ; Draw the first line
G1 X0.4 Y200.0 Z0.3 F5000.0 ; Move to side a little
G1 X0.4 Y20 Z0.3 F1500.0 E30 ; Draw the second line
G92 E0 ; Reset Extruder
G1 Z2.0 F3000 ; Move Z Axis up little to prevent scratching of Heat Bed
G1 X5 Y20 Z0.3 F5000.0 ; Move over to prevent blob squish

G92 E0
G92 E0
G1 F2700 E-5
;LAYER_COUNT:95
;LAYER:0
M107
G1 F300 Z0.4
G0 F6000 X28.144 Y17.501 Z0.4
;TYPE:SKIRT
G1 F300 Z0.2
G1 F2700 E0
G1 F1200 X28.573 Y16.838 E0.02627
G1 X29.067 Y16.222 E0.05253
G1 X29.62 Y15.658 E0.0788
G1 X30.228 Y15.154 E0.10507
G1 X30.884 Y14.714 E0.13134
G1 X31.58 Y14.342 E0.15759
G1 X32.311 Y14.043 E0.18385
G1 X32.875 Y13.868 E0.2035
G1 X33.035 Y13.825 E0.20901
G1 X33.807 Y13.659 E0.23527
G1 X34.591 Y13.572 E0.26151
G1 X35.381 Y13.565 E0.28778
G1 X36.167 Y13.637 E0.31403
G1 X36.942 Y13.789 E0.3403
G1 X37.698 Y14.018 E0.36657
G1 X38.427 Y14.323 E0.39286
G1 X38.959 Y14.603 E0.41285
G1 X45.573 Y18.422 E0.66687
G1 X46.224 Y18.459 E0.68856
G1 X47.004 Y18.584 E0.71484
G1 X47.768 Y18.786 E0.74112
G1 X48.755 Y19.179 E0.77645
G1 X249.87 Y115.451 E8.19246
G1 X250.793 Y115.973 E8.22773
G1 X250.878 Y116.029 E8.23111
G1 X251.515 Y116.496 E8.25738
G1 X252.101 Y117.025 E8.28364
G1 X252.775 Y117.793 E8.31763
G1 X256.294 Y122.378 E8.50986
G1 X256.742 Y123.028 E8.53612
G1 X257.118 Y123.711 E8.56205
G1 X257.137 Y123.75 E8.56349
G1 X257.447 Y124.476 E8.58975
G1 X257.659 Y125.147 E8.61315
G1 X259.277 Y131.186 E8.8211
G1 X259.443 Y131.959 E8.84739
G1 X259.521 Y132.622 E8.8696
G1 X259.524 Y132.662 E8.87093
G1 X259.543 Y133.451 E8.89718
G1 X259.479 Y134.262 E8.92424
G1 X258.94 Y138.36 E9.06171
G1 X258.798 Y139.137 E9.08798
G1 X258.51 Y140.082 E9.12084
G1 X258.495 Y140.122 E9.12226
G1 X258.181 Y140.846 E9.14851
G1 X257.947 Y141.283 E9.165
G1 X204.047 Y234.642 E12.75048
G1 X223.435 Y245.835 E13.49508
G1 X263.851 Y175.831 E16.1836
G1 X264.28 Y175.168 E16.20987
G1 X264.774 Y174.552 E16.23613
G1 X265.327 Y173.989 E16.26238
G1 X265.935 Y173.484 E16.28866
G1 X266.591 Y173.044 E16.31494
G1 X267.287 Y172.672 E16.34119
G1 X268.018 Y172.373 E16.36745
G1 X268.582 Y172.198 E16.38709
G1 X268.742 Y172.155 E16.3926
G1 X269.514 Y171.989 E16.41887
G1 X270.298 Y171.902 E16.4451
G1 X271.088 Y171.895 E16.47138
G1 X271.874 Y171.967 E16.49763
G1 X272.649 Y172.119 E16.5239
G1 X273.405 Y172.348 E16.55017
G1 X274.134 Y172.653 E16.57646
G1 X274.666 Y172.933 E16.59645
G1 X284.378 Y178.54 E16.96944
G1 X285.041 Y178.969 E16.99571
G1 X285.657 Y179.463 E17.02197
G1 X286.22 Y180.016 E17.04822
G1 X286.725 Y180.624 E17.07451
G1 X287.165 Y181.279 E17.10075
G1 X287.537 Y181.976 E17.12703
G1 X287.836 Y182.707 E17.1533
G1 X288.011 Y183.271 E17.17294
G1 X288.054 Y183.431 E17.17845
G1 X288.22 Y184.203 E17.20471
G1 X288.307 Y184.987 E17.23095
G1 X288.314 Y185.777 E17.25722
G1 X288.242 Y186.563 E17.28348
G1 X288.09 Y187.338 E17.30974
G1 X287.861 Y188.094 E17.33602
G1 X287.556 Y188.823 E17.3623
G1 X287.276 Y189.355 E17.3823
G1 X236.836 Y276.721 E20.73762
G1 X236.407 Y277.384 E20.76388
G1 X235.913 Y278 E20.79014
G1 X235.085 Y278.804 E20.82853
G1 X235.03 Y278.85 E20.83092
G1 X234.4 Y279.326 E20.85718
G1 X233.724 Y279.735 E20.88346
G1 X233.011 Y280.073 E20.9097
G1 X232.617 Y280.224 E20.92374
G1 X216.103 Y286.041 E21.50607
G1 X215.346 Y286.265 E21.53233
G1 X214.57 Y286.412 E21.5586
G1 X213.784 Y286.479 E21.58484
G1 X212.806 Y286.452 E21.61738
G1 X212.718 Y286.444 E21.62032
G1 X211.936 Y286.333 E21.64659
G1 X211.169 Y286.143 E21.67287
G1 X210.426 Y285.877 E21.69912
G1 X209.524 Y285.431 E21.73258
G1 X176.701 Y266.482 E22.99314
G1 X176.038 Y266.053 E23.01941
G1 X175.422 Y265.559 E23.04567
G1 X174.609 Y264.72 E23.08453
G1 X174.564 Y264.666 E23.08687
G1 X174.09 Y264.035 E23.11312
G1 X173.682 Y263.359 E23.13938
G1 X173.247 Y262.396 E23.17452
G1 X165.488 Y241.566 E23.91383
G1 X165.25 Y240.813 E23.9401
G1 X165.089 Y240.039 E23.9664
G1 X165.008 Y239.254 E23.99264
G1 X165.02 Y238.238 E24.02644
G1 X165.027 Y238.148 E24.02944
G1 X165.128 Y237.365 E24.0557
G1 X165.308 Y236.596 E24.08197
G1 X165.565 Y235.849 E24.10824
G1 X166.049 Y234.853 E24.14507
G1 X211.062 Y156.892 E27.13924
G1 X211.059 Y156.524 E27.15148
G1 X211.131 Y155.737 E27.17777
G1 X211.2 Y155.332 E27.19143
G1 X211.252 Y155.104 E27.19921
G1 X210.712 Y154.904 E27.21836
G1 X210.003 Y154.556 E27.24463
G1 X209.515 Y154.261 E27.2636
G1 X209.454 Y154.221 E27.26602
G1 X208.816 Y153.755 E27.2923
G1 X208.229 Y153.227 E27.31856
G1 X207.547 Y152.451 E27.35292
G1 X206.853 Y151.549 E27.39077
G1 X36.024 Y52.919 E33.95158
G1 X16.295 Y68.83 E34.79457
G1 X15.656 Y69.294 E34.82084
G1 X14.973 Y69.691 E34.84711
G1 X14.254 Y70.016 E34.87335
G1 X13.505 Y70.268 E34.89964
G1 X12.735 Y70.443 E34.9259
G1 X11.951 Y70.538 E34.95217
G1 X11.162 Y70.554 E34.97842
G1 X10.374 Y70.491 E35.00471
G1 X9.598 Y70.347 E35.03096
G1 X8.84 Y70.127 E35.05721
G1 X8.108 Y69.83 E35.08349
G1 X7.41 Y69.461 E35.10975
G1 X6.752 Y69.024 E35.13602
G1 X6.333 Y68.69 E35.15384
G1 X6.08 Y68.474 E35.1649
G1 X5.507 Y67.932 E35.19114
G1 X4.991 Y67.334 E35.21741
G1 X4.538 Y66.687 E35.24368
G1 X4.152 Y65.998 E35.26994
G1 X3.839 Y65.273 E35.29621
G1 X3.6 Y64.52 E35.32249
G1 X3.439 Y63.747 E35.34875
G1 X3.356 Y62.962 E35.375
G1 X3.354 Y62.172 E35.40128
G1 X3.431 Y61.386 E35.42755
G1 X3.587 Y60.612 E35.45381
G1 X3.821 Y59.858 E35.48006
G1 X4.13 Y59.131 E35.50634
G1 X4.39 Y58.642 E35.52476
G1 X28.144 Y17.501 E37.10482
G0 F6000 X28.49 Y17.701
G1 F1200 X28.909 Y17.056 E37.1304
G1 X29.393 Y16.457 E37.15601
G1 X29.935 Y15.913 E37.18156
G1 X30.532 Y15.427 E37.20716
G1 X31.176 Y15.006 E37.23275
G1 X31.86 Y14.654 E37.25834
G1 X32.576 Y14.375 E37.28389
G1 X32.978 Y14.255 E37.29785
G1 X33.138 Y14.212 E37.30336
G1 X33.891 Y14.051 E37.32897
G1 X34.655 Y13.969 E37.35453
G1 X35.425 Y13.967 E37.38014
G1 X36.19 Y14.045 E37.40571
G1 X36.943 Y14.202 E37.4313
G1 X37.675 Y14.436 E37.45686
G1 X38.38 Y14.745 E37.48246
G1 X38.759 Y14.95 E37.49679
G1 X45.455 Y18.816 E37.75395
G1 X45.494 Y18.815 E37.75525
G1 X46.261 Y18.866 E37.78082
G1 X47.019 Y18.996 E37.8064
G1 X47.759 Y19.205 E37.83197
G1 X48.582 Y19.539 E37.86151
G1 X249.697 Y115.811 E45.27752
G1 X250.573 Y116.307 E45.311
G1 X250.658 Y116.363 E45.31439
G1 X251.278 Y116.819 E45.33999
G1 X251.846 Y117.336 E45.36553
G1 X252.457 Y118.037 E45.39646
G1 X255.976 Y122.622 E45.5887
G1 X256.412 Y123.255 E45.61426
G1 X256.759 Y123.886 E45.63821
G1 X256.778 Y123.925 E45.63965
G1 X257.078 Y124.633 E45.66523
G1 X257.273 Y125.251 E45.68678
G1 X258.891 Y131.29 E45.89473
G1 X259.051 Y132.042 E45.9203
G1 X259.122 Y132.652 E45.94072
G1 X259.125 Y132.692 E45.94206
G1 X259.143 Y133.461 E45.96764
G1 X259.083 Y134.21 E45.99263
G1 X258.544 Y138.308 E46.13011
G1 X258.404 Y139.064 E46.15568
G1 X258.136 Y139.941 E46.18618
G1 X258.121 Y139.981 E46.1876
G1 X257.814 Y140.686 E46.21317
G1 X257.601 Y141.083 E46.22816
G1 X203.501 Y234.788 E49.82694
G1 X223.581 Y246.381 E50.59812
G1 X264.197 Y176.031 E53.29993
G1 X264.616 Y175.386 E53.32551
G1 X265.099 Y174.788 E53.35108
G1 X265.642 Y174.243 E53.37667
G1 X266.239 Y173.757 E53.40227
G1 X266.882 Y173.336 E53.42784
G1 X267.566 Y172.984 E53.45342
G1 X268.283 Y172.705 E53.47901
G1 X268.685 Y172.585 E53.49296
G1 X268.845 Y172.542 E53.49847
G1 X269.598 Y172.381 E53.52409
G1 X270.362 Y172.299 E53.54964
G1 X271.132 Y172.297 E53.57525
G1 X271.897 Y172.375 E53.60083
G1 X272.65 Y172.532 E53.62641
G1 X273.382 Y172.766 E53.65197
G1 X274.087 Y173.075 E53.67757
G1 X274.466 Y173.279 E53.69189
G1 X284.178 Y178.886 E54.06488
G1 X284.823 Y179.305 E54.09046
G1 X285.421 Y179.788 E54.11603
G1 X285.966 Y180.331 E54.14162
G1 X286.452 Y180.928 E54.16722
G1 X286.873 Y181.571 E54.19278
G1 X287.225 Y182.255 E54.21837
G1 X287.504 Y182.972 E54.24396
G1 X287.624 Y183.374 E54.25791
G1 X287.667 Y183.534 E54.26342
G1 X287.828 Y184.287 E54.28903
G1 X287.91 Y185.051 E54.31459
G1 X287.912 Y185.821 E54.3402
G1 X287.834 Y186.586 E54.36578
G1 X287.677 Y187.339 E54.39136
G1 X287.443 Y188.071 E54.41692
G1 X287.134 Y188.776 E54.44252
G1 X286.93 Y189.155 E54.45684
G1 X236.49 Y276.521 E57.81216
G1 X236.071 Y277.166 E57.83774
G1 X235.588 Y277.764 E57.86331
G1 X234.829 Y278.497 E57.8984
G1 X234.774 Y278.543 E57.90079
G1 X234.159 Y279.005 E57.92637
G1 X233.499 Y279.401 E57.95197
G1 X232.485 Y279.847 E57.98882
G1 X215.971 Y285.664 E58.57115
G1 X215.233 Y285.881 E58.59674
G1 X214.476 Y286.021 E58.62234
G1 X213.71 Y286.081 E58.6479
G1 X212.842 Y286.054 E58.67678
G1 X212.754 Y286.046 E58.67972
G1 X211.993 Y285.936 E58.70529
G1 X211.247 Y285.748 E58.73088
G1 X210.524 Y285.484 E58.75648
G1 X209.724 Y285.085 E58.78622
G1 X176.901 Y266.136 E60.04678
G1 X176.256 Y265.717 E60.07236
G1 X175.658 Y265.234 E60.09793
G1 X174.916 Y264.464 E60.13349
G1 X174.871 Y264.41 E60.13583
G1 X174.41 Y263.795 E60.16139
G1 X174.016 Y263.134 E60.18699
G1 X173.621 Y262.256 E60.21901
G1 X165.862 Y241.426 E60.95832
G1 X165.632 Y240.692 E60.9839
G1 X165.479 Y239.939 E61.00946
G1 X165.404 Y239.173 E61.03506
G1 X165.419 Y238.269 E61.06513
G1 X165.426 Y238.179 E61.06813
G1 X165.526 Y237.416 E61.09373
G1 X165.704 Y236.668 E61.1193
G1 X165.958 Y235.942 E61.14488
G1 X166.396 Y235.053 E61.17785
G1 X211.462 Y157 E64.17554
G1 X211.461 Y156.48 E64.19284
G1 X211.593 Y155.409 E64.22873
G1 X211.612 Y155.313 E64.23199
G1 X211.732 Y154.838 E64.24828
G1 X211.553 Y154.791 E64.25444
G1 X210.833 Y154.521 E64.28001
G1 X210.145 Y154.177 E64.3056
G1 X209.734 Y153.926 E64.32161
G1 X209.673 Y153.886 E64.32404
G1 X209.053 Y153.432 E64.3496
G1 X208.483 Y152.915 E64.37519
G1 X207.864 Y152.208 E64.40645
G1 X207.121 Y151.242 E64.44698
G1 X35.985 Y52.435 E71.01957
G1 X16.043 Y68.518 E71.87167
G1 X15.42 Y68.969 E71.89725
G1 X14.754 Y69.353 E71.92282
G1 X14.051 Y69.666 E71.94842
G1 X13.32 Y69.904 E71.97398
G1 X12.568 Y70.065 E71.99956
G1 X11.803 Y70.147 E72.02515
G1 X11.034 Y70.149 E72.05073
G1 X10.269 Y70.071 E72.07631
G1 X9.516 Y69.915 E72.10188
G1 X8.783 Y69.681 E72.12747
G1 X8.078 Y69.372 E72.15308
G1 X7.41 Y68.991 E72.17865
G1 X6.593 Y68.386 E72.21247
G1 X6.34 Y68.17 E72.22353
G1 X5.782 Y67.641 E72.2491
G1 X5.282 Y67.057 E72.27468
G1 X4.845 Y66.424 E72.30026
G1 X4.476 Y65.749 E72.32584
G1 X4.179 Y65.039 E72.35144
G1 X3.957 Y64.302 E72.37704
G1 X3.814 Y63.547 E72.4026
G1 X3.749 Y62.78 E72.4282
G1 X3.764 Y62.011 E72.45378
G1 X3.859 Y61.248 E72.47936
G1 X4.033 Y60.499 E72.50493
G1 X4.283 Y59.772 E72.5305
G1 X4.736 Y58.842 E72.56491
G1 X28.49 Y17.701 E74.14497
G0 F6000 X28.837 Y17.901
G1 F1200 X29.245 Y17.274 E74.16985
G1 X29.718 Y16.694 E74.19474
G1 X30.25 Y16.168 E74.21963
G1 X30.835 Y15.702 E74.2445
G1 X31.466 Y15.301 E74.26937
G1 X32.137 Y14.969 E74.29427
G1 X33.082 Y14.641 E74.32754
G1 X33.242 Y14.598 E74.33305
G1 X33.974 Y14.443 E74.35794
G1 X34.718 Y14.366 E74.38281
G1 X35.466 Y14.37 E74.40769
G1 X36.21 Y14.453 E74.43259
G1 X36.94 Y14.615 E74.45746
G1 X37.649 Y14.855 E74.48236
G1 X38.559 Y15.296 E74.51599
G1 X45.358 Y19.222 E74.77712
G1 X45.549 Y19.216 E74.78348
G1 X46.295 Y19.273 E74.80836
G1 X47.031 Y19.41 E74.83326
G1 X47.747 Y19.624 E74.85812
G1 X48.409 Y19.9 E74.88197
G1 X249.524 Y116.172 E82.29798
G1 X250.353 Y116.641 E82.32966
G1 X250.438 Y116.697 E82.33304
G1 X251.04 Y117.141 E82.35792
G1 X251.591 Y117.647 E82.3828
G1 X252.14 Y118.28 E82.41067
G1 X255.659 Y122.865 E82.60291
G1 X256.082 Y123.482 E82.62779
G1 X256.399 Y124.061 E82.64974
G1 X256.418 Y124.1 E82.65119
G1 X256.709 Y124.789 E82.67606
G1 X256.887 Y125.354 E82.69577
G1 X258.505 Y131.393 E82.90371
G1 X258.659 Y132.125 E82.92859
G1 X258.723 Y132.681 E82.9472
G1 X258.726 Y132.721 E82.94854
G1 X258.742 Y133.469 E82.97342
G1 X258.686 Y134.158 E82.99641
G1 X258.147 Y138.256 E83.13389
G1 X258.01 Y138.991 E83.15875
G1 X257.761 Y139.801 E83.18694
G1 X257.746 Y139.841 E83.18836
G1 X257.447 Y140.526 E83.21322
G1 X257.254 Y140.883 E83.22672
G1 X202.954 Y234.935 E86.83881
G1 X223.728 Y246.928 E87.63663
G1 X264.544 Y176.231 E90.35177
G1 X264.952 Y175.604 E90.37665
G1 X265.425 Y175.024 E90.40155
G1 X265.956 Y174.498 E90.42641
G1 X266.541 Y174.032 E90.45128
G1 X267.173 Y173.631 E90.47618
G1 X267.843 Y173.299 E90.50105
G1 X268.789 Y172.971 E90.53435
G1 X268.949 Y172.928 E90.53986
G1 X269.681 Y172.773 E90.56474
G1 X270.425 Y172.696 E90.58962
G1 X271.173 Y172.7 E90.6145
G1 X271.917 Y172.783 E90.6394
G1 X272.647 Y172.945 E90.66427
G1 X273.356 Y173.185 E90.68917
G1 X274.266 Y173.626 E90.7228
G1 X283.978 Y179.233 E91.09579
G1 X284.605 Y179.641 E91.12067
G1 X285.185 Y180.114 E91.14556
G1 X285.711 Y180.645 E91.17042
G1 X286.177 Y181.23 E91.1953
G1 X286.578 Y181.862 E91.22019
G1 X286.91 Y182.532 E91.24506
G1 X287.238 Y183.478 E91.27836
G1 X287.281 Y183.638 E91.28388
G1 X287.436 Y184.37 E91.30876
G1 X287.513 Y185.114 E91.33364
G1 X287.509 Y185.862 E91.35852
G1 X287.426 Y186.606 E91.38342
G1 X287.264 Y187.336 E91.40829
G1 X287.024 Y188.045 E91.43318
G1 X286.583 Y188.955 E91.46682
G1 X236.143 Y276.321 E94.82214
G1 X235.735 Y276.948 E94.84702
G1 X235.262 Y277.528 E94.87191
G1 X234.572 Y278.191 E94.90374
G1 X234.517 Y278.237 E94.90612
G1 X233.918 Y278.685 E94.931
G1 X233.275 Y279.067 E94.95588
G1 X232.352 Y279.469 E94.98936
G1 X215.838 Y285.286 E95.5717
G1 X215.12 Y285.497 E95.59659
G1 X214.384 Y285.63 E95.62147
G1 X213.637 Y285.683 E95.64637
G1 X212.878 Y285.655 E95.67164
G1 X212.79 Y285.647 E95.67457
G1 X212.05 Y285.54 E95.69944
G1 X211.325 Y285.354 E95.72434
G1 X210.625 Y285.092 E95.7492
G1 X209.924 Y284.738 E95.77532
G1 X177.101 Y265.789 E97.03588
G1 X176.474 Y265.381 E97.06076
G1 X175.894 Y264.909 E97.08563
G1 X175.223 Y264.208 E97.1179
G1 X175.178 Y264.154 E97.12024
G1 X174.731 Y263.555 E97.1451
G1 X174.35 Y262.911 E97.16999
G1 X173.996 Y262.116 E97.19893
G1 X166.237 Y241.286 E97.93824
G1 X166.014 Y240.572 E97.96312
G1 X165.868 Y239.839 E97.98798
G1 X165.801 Y239.094 E98.01286
G1 X165.818 Y238.3 E98.03928
G1 X165.825 Y238.21 E98.04228
G1 X165.923 Y237.469 E98.06714
G1 X166.099 Y236.742 E98.09202
G1 X166.352 Y236.038 E98.1169
G1 X166.742 Y235.253 E98.14605
G1 X211.86 Y157.11 E101.14721
G1 X211.864 Y156.439 E101.16953
G1 X211.985 Y155.487 E101.20144
G1 X212.004 Y155.391 E101.2047
G1 X212.188 Y154.666 E101.22958
G1 X212.229 Y154.555 E101.23351
G1 X211.655 Y154.404 E101.25325
G1 X210.956 Y154.138 E101.27813
G1 X210.289 Y153.798 E101.30303
G1 X209.954 Y153.592 E101.31611
G1 X209.893 Y153.552 E101.31854
G1 X209.29 Y153.109 E101.34342
G1 X208.738 Y152.604 E101.36831
G1 X208.181 Y151.964 E101.39652
G1 X207.389 Y150.934 E101.43974
G1 X35.949 Y51.951 E108.02401
G1 X15.792 Y68.207 E108.88529
G1 X15.186 Y68.645 E108.91016
G1 X14.536 Y69.015 E108.93504
G1 X13.85 Y69.314 E108.95993
G1 X13.137 Y69.539 E108.98479
G1 X12.403 Y69.685 E109.00968
G1 X11.658 Y69.753 E109.03457
G1 X10.91 Y69.741 E109.05945
G1 X10.168 Y69.649 E109.08432
G1 X9.439 Y69.478 E109.10922
G1 X8.733 Y69.231 E109.1341
G1 X8.058 Y68.91 E109.15896
G1 X7.421 Y68.518 E109.18383
G1 X6.853 Y68.082 E109.20765
G1 X6.6 Y67.866 E109.21871
G1 X6.058 Y67.35 E109.2436
G1 X5.574 Y66.78 E109.26848
G1 X5.153 Y66.161 E109.29337
G1 X4.801 Y65.501 E109.31825
G1 X4.522 Y64.807 E109.34313
G1 X4.318 Y64.088 E109.36799
G1 X4.192 Y63.35 E109.39289
G1 X4.145 Y62.604 E109.41775
G1 X4.179 Y61.856 E109.44266
G1 X4.292 Y61.117 E109.46752
G1 X4.483 Y60.394 E109.49239
G1 X4.75 Y59.695 E109.51728
G1 X5.083 Y59.042 E109.54166
G1 X28.837 Y17.901 E111.12172
G0 F6000 X29.183 Y18.101
G1 F1200 X29.581 Y17.493 E111.14589
G1 X30.042 Y16.932 E111.17004
G1 X30.563 Y16.425 E111.19422
G1 X31.136 Y15.979 E111.21837
G1 X31.754 Y15.598 E111.24252
G1 X32.411 Y15.288 E111.26668
