;FLAVOR:Marlin
;TIME:25449
;Filament used: 30.6312m
;Layer height: 0.2
;MINX:2.554
;MINY:2.197
;MINZ:0.2
;MAXX:294.086
;MAXY:281.565
;MAXZ:19
;Generated with Cura_SteamEngine 4.8.0
M140 S60
M105
M190 S60
M104 S200
M105
M109 S200
M82 ;absolute extrusion mode
; LONGER Start G-code
G21 ; metric values
G90 ; absolute positioning
M82 ; set extruder to absolute mode
M107 ; start with the fan off
G92 E0 ; Reset Extruder
G28 ; Home all axes
G1 Z2.0 F3000 ; Move Z Axis up little to prevent scratching of Heat Bed
G1 X0.1 Y20 Z0.3 F5000.0 ; Move to start position
G1 X0.1 Y200.0 Z0.3 F1500.0 E15 ; Draw the first line
G1 X0.4 Y200.0 Z0.3 F5000.0 ; Move to side a little
G1 X0.4 Y20 Z0.3 F1500.0 E30 ; Draw the second line
G92 E0 ; Reset Extruder
G1 Z2.0 F3000 ; Move Z Axis up little to prevent scratching of Heat Bed
G1 X5 Y20 Z0.3 F5000.0 ; Move over to prevent blob squish

G92 E0
G92 E0
G1 F2700 E-5
;LAYER_COUNT:95
;LAYER:0
M107
G0 F6000 X27.702 Y8.126 Z0.2
;TYPE:SKIRT
G1 F2700 E0
G1 F1200 X28.039 Y7.561 E0.02188
G1 X28.553 Y6.777 E0.05306
G1 X29.132 Y6.039 E0.08426
G1 X29.772 Y5.354 E0.11544
G1 X30.469 Y4.725 E0.14667
G1 X31.216 Y4.158 E0.17786
G1 X32.008 Y3.657 E0.20903
G1 X32.841 Y3.225 E0.24024
G1 X33.707 Y2.866 E0.27142
G1 X34.601 Y2.581 E0.30263
G1 X35.515 Y2.374 E0.3338
G1 X36.444 Y2.245 E0.36499
G1 X37.381 Y2.197 E0.3962
G1 X38.318 Y2.228 E0.42738
G1 X39.25 Y2.338 E0.45859
G1 X40.168 Y2.528 E0.48977
G1 X41.067 Y2.795 E0.52096
G1 X41.94 Y3.138 E0.55216
G1 X42.689 Y3.505 E0.5799
G1 X42.86 Y3.597 E0.58636
G1 X45.226 Y4.828 E0.67507
G1 X47.509 Y5.936 E0.75947
G1 X49.787 Y6.962 E0.84257
G1 X52.021 Y7.896 E0.9231
G1 X52.301 Y8.017 E0.93325
G1 X52.586 Y8.145 E0.94364
G1 X53.072 Y8.372 E0.96148
G1 X253.284 Y104.211 E8.34418
G1 X253.929 Y104.532 E8.36814
G1 X254.605 Y104.899 E8.39373
G1 X254.673 Y104.939 E8.39635
G1 X255.461 Y105.448 E8.42755
G1 X256.202 Y106.023 E8.45875
G1 X256.891 Y106.659 E8.48993
G1 X257.59 Y107.431 E8.52457
G1 X257.87 Y107.775 E8.53932
G1 X258.133 Y108.111 E8.55352
G1 X261.054 Y111.918 E8.71311
G1 X261.378 Y112.353 E8.73116
G1 X261.936 Y113.178 E8.76428
G1 X262.548 Y114.177 E8.80325
G1 X262.667 Y114.376 E8.81096
G1 X264.323 Y117.212 E8.92019
G1 X265.194 Y118.761 E8.9793
G1 X265.278 Y118.912 E8.98504
G1 X267.343 Y122.731 E9.12944
G1 X268.67 Y125.105 E9.2199
G1 X269.969 Y127.356 E9.30634
G1 X270.277 Y127.909 E9.32739
G1 X270.698 Y128.747 E9.35859
G1 X271.046 Y129.618 E9.38978
G1 X271.388 Y130.798 E9.43064
G1 X271.475 Y131.179 E9.44364
G1 X272.086 Y133.662 E9.52869
G1 X272.757 Y136.098 E9.61273
G1 X273.486 Y138.48 E9.69558
G1 X274.304 Y140.901 E9.78058
G1 X275.17 Y143.248 E9.86378
G1 X276.106 Y145.577 E9.94727
G1 X277.113 Y147.891 E10.0312
G1 X278.179 Y150.162 E10.11465
G1 X279.317 Y152.421 E10.19878
G1 X280.523 Y154.654 E10.28318
G1 X281.764 Y156.803 E10.36572
G1 X283.086 Y158.95 E10.44958
G1 X284.467 Y161.058 E10.5334
G1 X285.899 Y163.112 E10.61668
G1 X287.418 Y165.167 E10.70168
G1 X288.942 Y167.111 E10.78384
G1 X290.606 Y169.114 E10.87045
G1 X291.403 Y170.033 E10.9109
G1 X291.987 Y170.767 E10.9421
G1 X292.506 Y171.548 E10.97329
G1 X292.956 Y172.371 E11.00449
G1 X293.335 Y173.229 E11.03569
G1 X293.639 Y174.116 E11.06687
G1 X293.867 Y175.026 E11.09807
G1 X294.016 Y175.952 E11.12927
G1 X294.086 Y176.887 E11.16046
G1 X294.076 Y177.825 E11.19165
G1 X293.987 Y178.758 E11.22283
G1 X293.818 Y179.681 E11.25404
G1 X293.571 Y180.585 E11.28521
G1 X293.247 Y181.466 E11.31643
G1 X292.759 Y182.488 E11.3541
G1 X292.582 Y182.814 E11.36643
G1 X292.441 Y183.065 E11.37601
G1 X242.368 Y269.793 E14.70685
G1 X242.021 Y270.373 E14.72933
G1 X241.505 Y271.157 E14.76055
G1 X240.925 Y271.894 E14.79174
G1 X240.284 Y272.579 E14.82294
G1 X239.587 Y273.206 E14.85412
G1 X238.839 Y273.772 E14.88532
G1 X238.046 Y274.272 E14.9165
G1 X237.213 Y274.703 E14.9477
G1 X236.4 Y275.042 E14.97699
G1 X235.55 Y275.355 E15.00712
G1 X220.188 Y280.766 E15.54883
G1 X219.52 Y280.991 E15.57228
G1 X218.619 Y281.252 E15.60348
G1 X217.7 Y281.435 E15.63464
G1 X216.768 Y281.54 E15.66584
G1 X215.83 Y281.565 E15.69705
G1 X214.894 Y281.509 E15.72823
G1 X213.966 Y281.375 E15.75942
G1 X213.053 Y281.161 E15.79061
G1 X212.161 Y280.871 E15.82181
G1 X211.297 Y280.506 E15.853
G1 X210.709 Y280.205 E15.87497
G1 X209.765 Y279.686 E15.9108
G1 X209.565 Y279.573 E15.91844
G1 X178.106 Y261.409 E17.12666
G1 X177.494 Y261.045 E17.15034
G1 X176.709 Y260.532 E17.18153
G1 X175.971 Y259.953 E17.21273
G1 X175.284 Y259.314 E17.24394
G1 X174.655 Y258.619 E17.27511
G1 X174.087 Y257.873 E17.3063
G1 X173.553 Y257.025 E17.33963
G1 X173.057 Y256.152 E17.37303
G1 X172.956 Y255.97 E17.37995
G1 X160.684 Y233.386 E18.23483
G1 X160.37 Y232.788 E18.2573
G1 X159.97 Y231.94 E18.28848
G1 X159.643 Y231.06 E18.3197
G1 X159.393 Y230.157 E18.35087
G1 X159.22 Y229.235 E18.38207
G1 X159.127 Y228.302 E18.41326
G1 X159.113 Y227.364 E18.44446
G1 X159.18 Y226.428 E18.47567
G1 X159.326 Y225.502 E18.50685
G1 X159.55 Y224.591 E18.53805
G1 X159.851 Y223.703 E18.56924
G1 X160.226 Y222.843 E18.60044
G1 X160.5 Y222.319 E18.62011
G1 X161.946 Y219.723 E18.71894
G1 X163.121 Y217.48 E18.80316
G1 X164.224 Y215.216 E18.88692
G1 X165.281 Y212.882 E18.97214
G1 X166.239 Y210.6 E19.05446
G1 X167.166 Y208.207 E19.13981
G1 X167.989 Y205.876 E19.22203
G1 X168.758 Y203.492 E19.30535
G1 X169.475 Y201.038 E19.39038
G1 X170.106 Y198.624 E19.47337
G1 X170.678 Y196.155 E19.55766
G1 X171.177 Y193.69 E19.64131
G1 X171.601 Y191.22 E19.72467
G1 X171.958 Y188.736 E19.80813
G1 X172.247 Y186.22 E19.89237
G1 X172.461 Y183.744 E19.97502
G1 X172.608 Y181.19 E20.06011
G1 X172.681 Y178.701 E20.14293
G1 X172.685 Y176.177 E20.22688
G1 X172.616 Y173.656 E20.31076
G1 X172.477 Y171.159 E20.39394
G1 X172.265 Y168.618 E20.47875
G1 X171.985 Y166.131 E20.56199
G1 X171.636 Y163.657 E20.64509
G1 X171.212 Y161.167 E20.7291
G1 X170.721 Y158.7 E20.81276
G1 X170.161 Y156.256 E20.89615
G1 X169.523 Y153.793 E20.98078
G1 X168.83 Y151.398 E21.0637
G1 X168.049 Y148.957 E21.14895
G1 X167.234 Y146.639 E21.23067
G1 X166.327 Y144.278 E21.31479
G1 X165.344 Y141.917 E21.39985
G1 X164.33 Y139.665 E21.482
G1 X163.223 Y137.382 E21.56639
G1 X162.059 Y135.143 E21.65032
G1 X160.838 Y132.949 E21.73383
G1 X159.543 Y130.771 E21.81811
G1 X158.205 Y128.657 E21.90132
G1 X156.796 Y126.567 E21.98516
G1 X155.345 Y124.538 E22.06812
G1 X153.804 Y122.509 E22.15286
G1 X152.228 Y120.551 E22.23646
G1 X150.605 Y118.646 E22.3197
G1 X148.91 Y116.768 E22.40384
G1 X147.174 Y114.95 E22.48745
G1 X145.375 Y113.17 E22.57162
G1 X143.554 Y111.467 E22.65455
G1 X141.679 Y109.812 E22.73773
G1 X139.715 Y108.174 E22.82279
G1 X137.742 Y106.622 E22.90628
G1 X135.727 Y105.126 E22.98975
G1 X133.662 Y103.681 E23.07358
G1 X131.566 Y102.302 E23.15703
G1 X129.367 Y100.943 E23.243
G1 X128.15 Y100.226 E23.28998
G1 X83.611 Y74.512 E25.00052
G1 X81.327 Y73.235 E25.08755
G1 X79.107 Y72.076 E25.17085
G1 X76.81 Y70.959 E25.2558
G1 X74.565 Y69.944 E25.33774
G1 X72.169 Y68.94 E25.42415
G1 X69.879 Y68.058 E25.50577
G1 X67.489 Y67.215 E25.59006
G1 X65.103 Y66.446 E25.67344
G1 X62.703 Y65.748 E25.75657
G1 X60.235 Y65.104 E25.84141
G1 X57.763 Y64.533 E25.92579
G1 X55.336 Y64.048 E26.00811
G1 X52.833 Y63.618 E26.09258
G1 X50.352 Y63.263 E26.17594
G1 X47.869 Y62.98 E26.25906
G1 X45.336 Y62.764 E26.34361
G1 X42.819 Y62.62 E26.42746
G1 X40.334 Y62.549 E26.51015
G1 X37.811 Y62.549 E26.59406
G1 X35.277 Y62.62 E26.67838
G1 X32.771 Y62.76 E26.76186
G1 X30.26 Y62.973 E26.84567
G1 X27.748 Y63.258 E26.92976
G1 X25.26 Y63.611 E27.01334
G1 X22.788 Y64.034 E27.09675
G1 X20.309 Y64.53 E27.18084
G1 X17.911 Y65.08 E27.26267
G1 X17.669 Y65.142 E27.27098
G1 X16.381 Y65.458 E27.31509
G1 X15.461 Y65.643 E27.3463
G1 X14.53 Y65.748 E27.37746
G1 X13.592 Y65.774 E27.40867
G1 X12.656 Y65.719 E27.43985
G1 X11.727 Y65.586 E27.47107
G1 X10.814 Y65.373 E27.50225
G1 X9.922 Y65.084 E27.53344
G1 X9.058 Y64.719 E27.56463
G1 X8.499 Y64.435 E27.58549
G1 X8.286 Y64.319 E27.59355
G1 X7.482 Y63.836 E27.62475
G1 X6.723 Y63.286 E27.65592
G1 X6.012 Y62.673 E27.68715
G1 X5.357 Y62.002 E27.71834
G1 X4.761 Y61.278 E27.74953
G1 X4.229 Y60.506 E27.78071
G1 X3.765 Y59.691 E27.8119
G1 X3.372 Y58.839 E27.84311
G1 X3.053 Y57.957 E27.8743
G1 X2.81 Y57.051 E27.9055
G1 X2.646 Y56.128 E27.93668
G1 X2.56 Y55.194 E27.96788
G1 X2.554 Y54.256 E27.99908
G1 X2.629 Y53.321 E28.03027
G1 X2.782 Y52.396 E28.06146
G1 X3.014 Y51.487 E28.09266
G1 X3.323 Y50.602 E28.12384
G1 X3.861 Y49.446 E28.16625
G1 X4.106 Y48.995 E28.18332
G1 X4.266 Y48.715 E28.19404
G1 X27.702 Y8.126 E29.75292
G0 F6000 X28.045 Y8.331
G1 F1200 X28.382 Y7.766 E29.7748
G1 X28.888 Y6.997 E29.80542
G1 X29.458 Y6.274 E29.83604
G1 X30.089 Y5.603 E29.86667
G1 X30.776 Y4.99 E29.8973
G1 X31.513 Y4.439 E29.9279
G1 X32.296 Y3.954 E29.95854
G1 X33.117 Y3.538 E29.98915
G1 X33.972 Y3.196 E30.01978
G1 X34.853 Y2.928 E30.0504
G1 X35.754 Y2.739 E30.08102
G1 X36.668 Y2.628 E30.11165
G1 X37.588 Y2.596 E30.14226
G1 X38.507 Y2.645 E30.17287
G1 X39.419 Y2.774 E30.20351
G1 X40.316 Y2.981 E30.23413
G1 X41.191 Y3.265 E30.26472
G1 X42.039 Y3.624 E30.29535
G1 X42.5 Y3.857 E30.31253
G1 X42.737 Y3.984 E30.32148
G1 X45.045 Y5.185 E30.40801
G1 X47.349 Y6.303 E30.49319
G1 X49.605 Y7.319 E30.57548
G1 X51.739 Y8.21 E30.6524
G1 X52.142 Y8.384 E30.667
G1 X52.417 Y8.507 E30.67702
G1 X52.9 Y8.733 E30.69475
G1 X253.106 Y104.569 E38.07723
G1 X253.751 Y104.89 E38.10119
G1 X254.402 Y105.243 E38.12582
G1 X254.47 Y105.283 E38.12844
G1 X255.243 Y105.784 E38.15908
G1 X255.969 Y106.35 E38.1897
G1 X256.643 Y106.977 E38.22032
G1 X257.281 Y107.685 E38.25202
G1 X257.556 Y108.023 E38.26651
G1 X257.816 Y108.354 E38.28051
G1 X260.733 Y112.157 E38.43992
G1 X261.057 Y112.592 E38.45796
G1 X261.595 Y113.387 E38.48989
G1 X262.207 Y114.386 E38.52885
G1 X262.322 Y114.578 E38.5363
G1 X263.978 Y117.414 E38.64553
G1 X264.845 Y118.956 E38.70437
G1 X264.926 Y119.102 E38.70992
G1 X267.031 Y122.994 E38.85709
G1 X268.271 Y125.213 E38.94163
G1 X269.62 Y127.55 E39.03138
G1 X269.928 Y128.103 E39.05244
G1 X270.34 Y128.926 E39.08305
G1 X270.68 Y129.782 E39.11368
G1 X270.998 Y130.888 E39.15196
G1 X271.078 Y131.236 E39.16383
G1 X271.698 Y133.759 E39.25025
G1 X272.372 Y136.208 E39.33473
G1 X273.112 Y138.62 E39.41864
G1 X273.921 Y141.02 E39.50288
G1 X274.8 Y143.398 E39.5872
G1 X275.745 Y145.75 E39.67151
G1 X276.737 Y148.028 E39.75415
G1 X277.825 Y150.346 E39.83932
G1 X278.966 Y152.612 E39.9237
G1 X280.168 Y154.838 E40.00784
G1 X281.411 Y156.991 E40.09053
G1 X282.755 Y159.173 E40.17576
G1 X284.148 Y161.3 E40.26033
G1 X285.582 Y163.357 E40.34373
G1 X287.08 Y165.383 E40.42753
G1 X288.652 Y167.389 E40.5123
G1 X290.28 Y169.348 E40.59702
G1 X291.101 Y170.295 E40.6387
G1 X291.673 Y171.016 E40.66931
G1 X292.181 Y171.784 E40.69994
G1 X292.62 Y172.593 E40.73055
G1 X292.987 Y173.438 E40.76119
G1 X293.279 Y174.311 E40.79181
G1 X293.495 Y175.206 E40.82243
G1 X293.632 Y176.116 E40.85304
G1 X293.69 Y177.035 E40.88367
G1 X293.668 Y177.955 E40.91428
G1 X293.566 Y178.87 E40.9449
G1 X293.385 Y179.773 E40.97553
G1 X293.126 Y180.656 E41.00614
G1 X292.792 Y181.514 E41.03676
G1 X292.408 Y182.297 E41.06576
G1 X292.231 Y182.623 E41.0781
G1 X292.095 Y182.865 E41.08734
G1 X242.108 Y269.446 E44.41251
G1 X241.677 Y270.168 E44.44048
G1 X241.171 Y270.937 E44.4711
G1 X240.599 Y271.659 E44.50173
G1 X239.968 Y272.328 E44.53232
G1 X239.28 Y272.941 E44.56297
G1 X238.542 Y273.491 E44.59358
G1 X237.759 Y273.975 E44.6242
G1 X236.937 Y274.39 E44.65482
G1 X236.262 Y274.666 E44.67908
G1 X235.417 Y274.978 E44.70904
G1 X220.199 Y280.339 E45.24568
G1 X219.393 Y280.611 E45.27397
G1 X218.508 Y280.867 E45.30462
G1 X217.605 Y281.045 E45.33523
G1 X216.69 Y281.144 E45.36584
G1 X215.769 Y281.163 E45.39648
G1 X214.85 Y281.102 E45.42711
G1 X213.941 Y280.962 E45.4577
G1 X213.046 Y280.744 E45.48834
G1 X212.174 Y280.448 E45.51897
G1 X211.331 Y280.078 E45.54959
G1 X210.902 Y279.855 E45.56567
G1 X209.958 Y279.336 E45.6015
G1 X209.765 Y279.227 E45.60887
G1 X178.31 Y261.065 E46.81694
G1 X177.698 Y260.701 E46.84062
G1 X176.928 Y260.197 E46.87123
G1 X176.205 Y259.627 E46.90185
G1 X175.534 Y258.997 E46.93247
G1 X174.92 Y258.311 E46.96309
G1 X174.367 Y257.575 E46.99371
G1 X173.901 Y256.827 E47.02302
G1 X173.307 Y255.779 E47.06308
G1 X161.038 Y233.2 E47.91777
G1 X160.724 Y232.602 E47.94024
G1 X160.332 Y231.769 E47.97086
G1 X160.013 Y230.905 E48.00149
G1 X159.771 Y230.017 E48.0321
G1 X159.607 Y229.111 E48.06273
G1 X159.522 Y228.194 E48.09336
G1 X159.517 Y227.274 E48.12396
G1 X159.591 Y226.356 E48.15459
G1 X159.745 Y225.448 E48.18522
G1 X159.977 Y224.558 E48.21581
G1 X160.286 Y223.69 E48.24645
G1 X160.85 Y222.514 E48.28983
G1 X162.312 Y219.886 E48.38986
G1 X163.498 Y217.62 E48.47492
G1 X164.591 Y215.378 E48.55788
G1 X165.632 Y213.079 E48.64182
G1 X166.61 Y210.75 E48.72584
G1 X167.54 Y208.348 E48.81151
G1 X168.375 Y205.984 E48.89489
G1 X169.137 Y203.622 E48.97744
G1 X169.861 Y201.146 E49.06324
G1 X170.49 Y198.736 E49.14608
G1 X171.071 Y196.227 E49.23174
G1 X171.569 Y193.766 E49.31525
G1 X171.998 Y191.273 E49.39939
G1 X172.353 Y188.803 E49.48239
G1 X172.644 Y186.267 E49.56729
G1 X172.863 Y183.73 E49.65198
G1 X173.007 Y181.225 E49.73544
G1 X173.081 Y178.714 E49.81899
G1 X173.085 Y176.166 E49.90374
G1 X173.017 Y173.659 E49.98715
G1 X172.874 Y171.102 E50.07233
G1 X172.666 Y168.615 E50.15534
G1 X172.379 Y166.063 E50.24075
G1 X172.028 Y163.571 E50.32445
G1 X171.606 Y161.093 E50.40806
G1 X171.116 Y158.63 E50.49158
G1 X170.547 Y156.147 E50.57631
G1 X169.918 Y153.72 E50.6597
G1 X169.209 Y151.27 E50.74453
G1 X168.435 Y148.851 E50.829
G1 X167.597 Y146.469 E50.91299
G1 X166.711 Y144.161 E50.99521
G1 X165.713 Y141.766 E51.08151
G1 X164.683 Y139.477 E51.165
G1 X163.58 Y137.202 E51.24909
G1 X162.412 Y134.955 E51.33332
G1 X161.182 Y132.745 E51.41744
G1 X159.881 Y130.558 E51.50208
G1 X158.542 Y128.441 E51.58539
G1 X157.126 Y126.34 E51.66966
G1 X155.657 Y124.286 E51.75365
G1 X154.119 Y122.262 E51.8382
G1 X152.535 Y120.293 E51.92225
G1 X150.908 Y118.384 E52.00567
G1 X149.213 Y116.507 E52.08979
G1 X147.462 Y114.673 E52.17413
G1 X145.646 Y112.876 E52.2591
G1 X143.828 Y111.176 E52.34189
G1 X141.895 Y109.47 E52.42764
G1 X139.995 Y107.885 E52.50993
G1 X138 Y106.315 E52.59437
G1 X135.932 Y104.78 E52.68003
G1 X133.906 Y103.363 E52.76226
G1 X131.775 Y101.961 E52.8471
G1 X129.569 Y100.597 E52.93336
G1 X128.394 Y99.906 E52.9787
G1 X83.8 Y74.159 E54.69137
G1 X81.501 Y72.874 E54.77897
G1 X79.288 Y71.719 E54.86199
G1 X77.014 Y70.613 E54.9461
G1 X74.692 Y69.563 E55.03086
G1 X72.331 Y68.574 E55.116
G1 X70.019 Y67.684 E55.19839
G1 X67.64 Y66.844 E55.28231
G1 X65.199 Y66.058 E55.3676
G1 X62.801 Y65.36 E55.45067
G1 X60.321 Y64.713 E55.53591
G1 X57.866 Y64.146 E55.61972
G1 X55.404 Y63.654 E55.70322
G1 X52.891 Y63.222 E55.78803
G1 X50.417 Y62.868 E55.87116
G1 X47.877 Y62.579 E55.95618
G1 X45.392 Y62.367 E56.03913
G1 X42.854 Y62.222 E56.12368
G1 X40.311 Y62.149 E56.2083
G1 X37.8 Y62.149 E56.29182
G1 X35.242 Y62.22 E56.37693
G1 X32.751 Y62.36 E56.45991
G1 X30.217 Y62.575 E56.54449
G1 X27.718 Y62.858 E56.62814
G1 X25.202 Y63.215 E56.71266
G1 X22.72 Y63.64 E56.79642
G1 X20.239 Y64.136 E56.88057
G1 X17.748 Y64.709 E56.96558
G1 X17.574 Y64.754 E56.97156
G1 X16.286 Y65.07 E57.01567
G1 X15.383 Y65.25 E57.04629
G1 X14.468 Y65.351 E57.07691
G1 X13.547 Y65.373 E57.10755
G1 X12.629 Y65.314 E57.13815
G1 X11.718 Y65.177 E57.16879
G1 X10.824 Y64.96 E57.19939
G1 X9.951 Y64.667 E57.23002
G1 X9.107 Y64.299 E57.26064
G1 X8.69 Y64.084 E57.27624
G1 X8.477 Y63.968 E57.28431
G1 X7.689 Y63.493 E57.31491
G1 X6.944 Y62.951 E57.34556
G1 X6.25 Y62.347 E57.37616
G1 X5.61 Y61.685 E57.40678
G1 X5.03 Y60.97 E57.4374
G1 X4.515 Y60.207 E57.46802
G1 X4.067 Y59.402 E57.49866
G1 X3.692 Y58.562 E57.52926
G1 X3.39 Y57.692 E57.55989
G1 X3.165 Y56.799 E57.59052
G1 X3.019 Y55.89 E57.62114
G1 X2.952 Y54.972 E57.65175
G1 X2.964 Y54.051 E57.68239
G1 X3.057 Y53.135 E57.71301
G1 X3.229 Y52.231 E57.74362
G1 X3.478 Y51.345 E57.77423
G1 X3.804 Y50.484 E57.80485
G1 X4.213 Y49.636 E57.83616
G1 X4.454 Y49.193 E57.85294
G1 X4.612 Y48.915 E57.86357
G1 X28.045 Y8.331 E59.42225
G0 F6000 X28.389 Y8.536
G1 F1200 X28.726 Y7.971 E59.44413
