;FLAVOR:Marlin
;TIME:21944
;Filament used: 29.6252m
;Layer height: 0.28
;MINX:8.066
;MINY:3.937
;MINZ:0.28
;MAXX:293.026
;MAXY:276.851
;MAXZ:19.24
;Generated with Cura_SteamEngine 4.8.0
M140 S60
M105
M190 S60
M104 S200
M105
M109 S200
M82 ;absolute extrusion mode
; LONGER Start G-code
G21 ; metric values
G90 ; absolute positioning
M82 ; set extruder to absolute mode
M107 ; start with the fan off
G92 E0 ; Reset Extruder
G28 ; Home all axes
G1 Z2.0 F3000 ; Move Z Axis up little to prevent scratching of Heat Bed
G1 X0.1 Y20 Z0.3 F5000.0 ; Move to start position
G1 X0.1 Y200.0 Z0.3 F1500.0 E15 ; Draw the first line
G1 X0.4 Y200.0 Z0.3 F5000.0 ; Move to side a little
G1 X0.4 Y20 Z0.3 F1500.0 E30 ; Draw the second line
G92 E0 ; Reset Extruder
G1 Z2.0 F3000 ; Move Z Axis up little to prevent scratching of Heat Bed
G1 X5 Y20 Z0.3 F5000.0 ; Move over to prevent blob squish

G92 E0
G92 E0
G1 F2700 E-5
;LAYER_COUNT:68
;LAYER:0
M107
G1 F300 Z0.48
G0 F6000 X32.855 Y7.873 Z0.48
;TYPE:SKIRT
G1 F300 Z0.28
G1 F2700 E0
G1 F1200 X33.284 Y7.21 E0.03677
G1 X33.778 Y6.594 E0.07354
G1 X34.331 Y6.031 E0.11029
G1 X34.939 Y5.526 E0.14709
G1 X35.595 Y5.086 E0.18387
G1 X36.291 Y4.714 E0.22062
G1 X37.022 Y4.415 E0.25739
G1 X37.586 Y4.24 E0.28489
G1 X37.746 Y4.197 E0.2926
G1 X38.518 Y4.031 E0.32937
G1 X39.302 Y3.944 E0.3661
G1 X40.092 Y3.937 E0.40289
G1 X40.878 Y4.009 E0.43964
G1 X41.653 Y4.161 E0.47642
G1 X42.409 Y4.39 E0.5132
G1 X43.138 Y4.695 E0.55
G1 X43.67 Y4.975 E0.57799
G1 X50.285 Y8.794 E0.93366
G1 X50.936 Y8.831 E0.96402
G1 X51.716 Y8.956 E1.00081
G1 X52.48 Y9.158 E1.0376
G1 X53.467 Y9.551 E1.08707
G1 X254.584 Y105.824 E11.46959
G1 X255.115 Y106.104 E11.49754
G1 X264.981 Y111.799 E12.02798
G1 X265.644 Y112.228 E12.06475
G1 X266.261 Y112.721 E12.10153
G1 X266.824 Y113.275 E12.13831
G1 X267.328 Y113.882 E12.17505
G1 X267.769 Y114.538 E12.21185
G1 X268.14 Y115.235 E12.24862
G1 X268.44 Y115.965 E12.28537
G1 X268.615 Y116.53 E12.31291
G1 X268.658 Y116.69 E12.32063
G1 X268.824 Y117.462 E12.3574
G1 X268.911 Y118.246 E12.39413
G1 X268.918 Y119.036 E12.43091
G1 X268.846 Y119.822 E12.46767
G1 X268.694 Y120.597 E12.50444
G1 X268.465 Y121.353 E12.54122
G1 X268.16 Y122.082 E12.57802
G1 X267.88 Y122.614 E12.60601
G1 X208.759 Y225.014 E18.11183
G1 X228.146 Y236.208 E19.15425
G1 X268.563 Y166.204 E22.91821
G1 X268.992 Y165.541 E22.95498
G1 X269.486 Y164.925 E22.99174
G1 X270.039 Y164.362 E23.02849
G1 X270.647 Y163.857 E23.06529
G1 X271.303 Y163.417 E23.10208
G1 X271.999 Y163.045 E23.13882
G1 X272.73 Y162.746 E23.1756
G1 X273.294 Y162.571 E23.2031
G1 X273.454 Y162.528 E23.21081
G1 X274.226 Y162.362 E23.24758
G1 X275.01 Y162.275 E23.28431
G1 X275.8 Y162.268 E23.3211
G1 X276.586 Y162.34 E23.35785
G1 X277.361 Y162.492 E23.39462
G1 X278.117 Y162.721 E23.43141
G1 X278.846 Y163.026 E23.4682
G1 X279.377 Y163.306 E23.49616
G1 X289.089 Y168.912 E24.01832
G1 X289.752 Y169.341 E24.05509
G1 X290.369 Y169.834 E24.09187
G1 X290.932 Y170.388 E24.12864
G1 X291.436 Y170.995 E24.16538
G1 X291.877 Y171.651 E24.20219
G1 X292.248 Y172.348 E24.23896
G1 X292.548 Y173.078 E24.27571
G1 X292.723 Y173.643 E24.30325
G1 X292.766 Y173.803 E24.31096
G1 X292.932 Y174.575 E24.34773
G1 X293.019 Y175.359 E24.38446
G1 X293.026 Y176.149 E24.42125
G1 X292.954 Y176.935 E24.458
G1 X292.802 Y177.71 E24.49478
G1 X292.573 Y178.466 E24.53156
G1 X292.268 Y179.195 E24.56836
G1 X291.988 Y179.727 E24.59635
G1 X241.548 Y267.093 E29.2938
G1 X241.119 Y267.756 E29.33057
G1 X240.625 Y268.372 E29.36734
G1 X239.797 Y269.176 E29.42108
G1 X239.742 Y269.222 E29.42442
G1 X239.112 Y269.698 E29.46119
G1 X238.436 Y270.107 E29.49798
G1 X237.723 Y270.445 E29.53472
G1 X237.329 Y270.596 E29.55436
G1 X220.815 Y276.413 E30.36964
G1 X220.058 Y276.637 E30.4064
G1 X219.282 Y276.784 E30.44317
G1 X218.496 Y276.851 E30.47991
G1 X217.518 Y276.824 E30.52546
G1 X217.43 Y276.816 E30.52958
G1 X216.648 Y276.705 E30.56636
G1 X215.881 Y276.515 E30.60315
G1 X215.138 Y276.249 E30.6399
G1 X214.236 Y275.803 E30.68675
G1 X181.413 Y256.854 E32.45154
G1 X180.75 Y256.425 E32.48831
G1 X180.134 Y255.931 E32.52508
G1 X179.321 Y255.092 E32.57948
G1 X179.276 Y255.038 E32.58275
G1 X178.802 Y254.407 E32.6195
G1 X178.394 Y253.731 E32.65626
G1 X177.959 Y252.768 E32.70547
G1 X170.2 Y231.938 E33.7405
G1 X169.962 Y231.185 E33.77728
G1 X169.801 Y230.411 E33.81409
G1 X169.72 Y229.626 E33.85084
G1 X169.732 Y228.61 E33.89815
G1 X169.739 Y228.52 E33.90235
G1 X169.84 Y227.737 E33.93911
G1 X170.02 Y226.968 E33.97589
G1 X170.277 Y226.221 E34.01267
G1 X170.761 Y225.225 E34.06424
G1 X217.035 Y145.078 E38.37358
G1 X40.736 Y43.291 E47.85279
G1 X21.007 Y59.202 E49.03298
G1 X20.368 Y59.666 E49.06975
G1 X19.685 Y60.063 E49.10654
G1 X18.966 Y60.389 E49.1433
G1 X18.217 Y60.641 E49.1801
G1 X17.447 Y60.816 E49.21687
G1 X16.663 Y60.911 E49.25364
G1 X15.874 Y60.927 E49.29039
G1 X15.087 Y60.864 E49.32715
G1 X14.31 Y60.72 E49.36395
G1 X13.552 Y60.5 E49.4007
G1 X12.82 Y60.203 E49.43748
G1 X12.122 Y59.834 E49.47425
G1 X11.464 Y59.397 E49.51103
G1 X11.045 Y59.063 E49.53598
G1 X10.792 Y58.847 E49.55147
G1 X10.219 Y58.305 E49.58819
G1 X9.703 Y57.707 E49.62497
G1 X9.25 Y57.06 E49.66175
G1 X8.864 Y56.371 E49.69852
G1 X8.551 Y55.646 E49.73529
G1 X8.312 Y54.893 E49.77208
G1 X8.151 Y54.12 E49.80885
G1 X8.068 Y53.335 E49.8456
G1 X8.066 Y52.545 E49.88239
G1 X8.143 Y51.759 E49.91917
G1 X8.299 Y50.985 E49.95593
G1 X8.533 Y50.231 E49.99269
G1 X8.842 Y49.504 E50.02947
G1 X9.102 Y49.015 E50.05526
G1 X32.855 Y7.873 E52.26737
G0 F6000 X33.201 Y8.073
G1 F1200 X33.62 Y7.428 E52.30318
G1 X34.103 Y6.83 E52.33897
G1 X34.646 Y6.285 E52.3748
G1 X35.243 Y5.799 E52.41064
G1 X35.886 Y5.378 E52.44643
G1 X36.57 Y5.026 E52.48225
G1 X37.287 Y4.747 E52.51808
G1 X37.689 Y4.627 E52.53761
G1 X37.849 Y4.584 E52.54533
G1 X38.602 Y4.423 E52.58118
G1 X39.366 Y4.341 E52.61696
G1 X40.136 Y4.339 E52.65281
G1 X40.901 Y4.417 E52.68862
G1 X41.654 Y4.574 E52.72444
G1 X42.386 Y4.808 E52.76022
G1 X43.091 Y5.117 E52.79606
G1 X43.47 Y5.321 E52.81611
G1 X50.169 Y9.188 E53.17628
G1 X50.206 Y9.187 E53.178
G1 X50.973 Y9.238 E53.2138
G1 X51.731 Y9.368 E53.24961
G1 X52.471 Y9.577 E53.28541
G1 X53.294 Y9.911 E53.32677
G1 X254.411 Y106.184 E63.70928
G1 X254.915 Y106.45 E63.73582
G1 X264.781 Y112.145 E64.26627
G1 X265.427 Y112.564 E64.30212
G1 X266.025 Y113.047 E64.33791
G1 X266.57 Y113.59 E64.37374
G1 X267.056 Y114.186 E64.40955
G1 X267.477 Y114.83 E64.44537
G1 X267.829 Y115.514 E64.48119
G1 X268.108 Y116.231 E64.51702
G1 X268.228 Y116.633 E64.53655
G1 X268.271 Y116.793 E64.54427
G1 X268.432 Y117.546 E64.58012
G1 X268.514 Y118.31 E64.6159
G1 X268.516 Y119.08 E64.65176
G1 X268.438 Y119.845 E64.68756
G1 X268.281 Y120.598 E64.72338
G1 X268.047 Y121.33 E64.75916
G1 X267.738 Y122.035 E64.79501
G1 X267.534 Y122.414 E64.81505
G1 X208.213 Y225.16 E70.33948
G1 X228.292 Y236.754 E71.41911
G1 X268.909 Y166.404 E75.20168
G1 X269.328 Y165.759 E75.23749
G1 X269.811 Y165.16 E75.27332
G1 X270.354 Y164.616 E75.30911
G1 X270.951 Y164.13 E75.34496
G1 X271.595 Y163.709 E75.38079
G1 X272.278 Y163.357 E75.41656
G1 X272.995 Y163.078 E75.45239
G1 X273.397 Y162.958 E75.47192
G1 X273.557 Y162.915 E75.47964
G1 X274.31 Y162.754 E75.51549
G1 X275.074 Y162.672 E75.55127
G1 X275.844 Y162.67 E75.58713
G1 X276.609 Y162.748 E75.62293
G1 X277.362 Y162.905 E75.65875
G1 X278.094 Y163.139 E75.69454
G1 X278.799 Y163.448 E75.73038
G1 X279.177 Y163.652 E75.75038
G1 X288.889 Y169.258 E76.27254
G1 X289.535 Y169.677 E76.3084
G1 X290.133 Y170.16 E76.34419
G1 X290.678 Y170.703 E76.38001
G1 X291.164 Y171.299 E76.41582
G1 X291.585 Y171.943 E76.45165
G1 X291.937 Y172.627 E76.48747
G1 X292.216 Y173.344 E76.52329
G1 X292.336 Y173.746 E76.54283
G1 X292.379 Y173.906 E76.55054
G1 X292.54 Y174.659 E76.5864
G1 X292.622 Y175.423 E76.62218
G1 X292.624 Y176.193 E76.65803
G1 X292.546 Y176.958 E76.69384
G1 X292.389 Y177.711 E76.72966
G1 X292.155 Y178.443 E76.76544
G1 X291.846 Y179.148 E76.80128
G1 X291.642 Y179.527 E76.82132
G1 X241.202 Y266.893 E81.51877
G1 X240.783 Y267.538 E81.55459
G1 X240.3 Y268.136 E81.59038
G1 X239.541 Y268.869 E81.63952
G1 X239.486 Y268.915 E81.64285
G1 X238.871 Y269.377 E81.67867
G1 X238.211 Y269.773 E81.71451
G1 X237.197 Y270.219 E81.76609
G1 X220.683 Y276.036 E82.58136
G1 X219.945 Y276.253 E82.61718
G1 X219.188 Y276.393 E82.65303
G1 X218.422 Y276.453 E82.68881
G1 X217.554 Y276.426 E82.72925
G1 X217.466 Y276.418 E82.73336
G1 X216.705 Y276.308 E82.76916
G1 X215.959 Y276.12 E82.80499
G1 X215.236 Y275.856 E82.84083
G1 X214.436 Y275.457 E82.88245
G1 X181.613 Y256.508 E84.64724
G1 X180.968 Y256.089 E84.68305
G1 X180.37 Y255.606 E84.71885
G1 X179.628 Y254.836 E84.76864
G1 X179.583 Y254.782 E84.77191
G1 X179.122 Y254.167 E84.8077
G1 X178.728 Y253.506 E84.84353
G1 X178.333 Y252.628 E84.88836
G1 X170.574 Y231.798 E85.9234
G1 X170.344 Y231.064 E85.95922
G1 X170.191 Y230.311 E85.995
G1 X170.116 Y229.545 E86.03084
G1 X170.131 Y228.641 E86.07294
G1 X170.138 Y228.551 E86.07714
G1 X170.238 Y227.788 E86.11297
G1 X170.416 Y227.04 E86.14877
G1 X170.67 Y226.314 E86.18459
G1 X171.107 Y225.425 E86.23072
G1 X217.581 Y144.932 E90.55867
G1 X40.698 Y42.807 E100.0693
G1 X20.756 Y58.891 E101.26227
G1 X20.133 Y59.342 E101.29808
G1 X19.466 Y59.726 E101.33392
G1 X18.763 Y60.039 E101.36975
G1 X18.032 Y60.277 E101.40555
G1 X17.28 Y60.438 E101.44136
G1 X16.515 Y60.52 E101.47718
G1 X15.746 Y60.522 E101.51299
G1 X14.981 Y60.444 E101.5488
G1 X14.228 Y60.288 E101.5846
G1 X13.495 Y60.054 E101.62043
G1 X12.791 Y59.745 E101.65623
G1 X12.122 Y59.364 E101.69208
G1 X11.305 Y58.759 E101.73942
G1 X11.052 Y58.543 E101.75491
G1 X10.494 Y58.014 E101.79071
G1 X9.994 Y57.43 E101.82651
G1 X9.557 Y56.797 E101.86233
G1 X9.188 Y56.122 E101.89815
G1 X8.891 Y55.412 E101.93398
G1 X8.669 Y54.675 E101.96983
G1 X8.526 Y53.92 E102.00561
G1 X8.461 Y53.153 E102.04145
G1 X8.476 Y52.384 E102.07726
G1 X8.571 Y51.621 E102.11307
G1 X8.745 Y50.872 E102.14887
G1 X8.995 Y50.145 E102.18467
G1 X9.448 Y49.215 E102.23284
G1 X33.201 Y8.073 E104.44494
G0 F6000 X33.548 Y8.273
G1 F1200 X33.956 Y7.646 E104.47977
G1 X34.429 Y7.066 E104.51462
G1 X34.96 Y6.54 E104.54943
G1 X35.545 Y6.074 E104.58425
G1 X36.177 Y5.673 E104.61911
G1 X36.847 Y5.341 E104.65392
G1 X37.793 Y5.013 E104.70055
G1 X37.953 Y4.97 E104.70826
G1 X38.685 Y4.815 E104.7431
G1 X39.429 Y4.738 E104.77793
G1 X40.177 Y4.742 E104.81276
G1 X40.921 Y4.825 E104.84762
G1 X41.651 Y4.987 E104.88244
G1 X42.36 Y5.227 E104.91729
G1 X43.27 Y5.668 E104.96438
G1 X50.07 Y9.594 E105.33
G1 X50.261 Y9.588 E105.3389
G1 X51.007 Y9.645 E105.37374
G1 X51.743 Y9.782 E105.4086
G1 X52.459 Y9.996 E105.44339
G1 X53.121 Y10.272 E105.47679
G1 X254.238 Y106.545 E115.8593
G1 X254.715 Y106.797 E115.88442
G1 X264.581 Y112.492 E116.41487
G1 X265.208 Y112.9 E116.4497
G1 X265.788 Y113.372 E116.48452
G1 X266.314 Y113.904 E116.51936
G1 X266.781 Y114.489 E116.55421
G1 X267.182 Y115.12 E116.58903
G1 X267.514 Y115.791 E116.62389
G1 X267.842 Y116.737 E116.67051
G1 X267.885 Y116.897 E116.67822
G1 X268.04 Y117.629 E116.71306
G1 X268.117 Y118.373 E116.74789
G1 X268.113 Y119.121 E116.78272
G1 X268.03 Y119.865 E116.81758
G1 X267.868 Y120.595 E116.8524
G1 X267.628 Y121.304 E116.88726
G1 X267.187 Y122.214 E116.93434
G1 X207.666 Y225.307 E122.47742
G1 X228.439 Y237.301 E123.59435
G1 X269.256 Y166.604 E127.39557
G1 X269.664 Y165.977 E127.4304
G1 X270.137 Y165.397 E127.46525
G1 X270.668 Y164.871 E127.50005
G1 X271.253 Y164.405 E127.53488
G1 X271.885 Y164.004 E127.56973
G1 X272.555 Y163.672 E127.60455
G1 X273.501 Y163.344 E127.65117
G1 X273.661 Y163.301 E127.65889
G1 X274.393 Y163.146 E127.69373
G1 X275.137 Y163.069 E127.72856
G1 X275.885 Y163.073 E127.76339
G1 X276.629 Y163.156 E127.79825
G1 X277.359 Y163.318 E127.83307
G1 X278.068 Y163.558 E127.86792
G1 X278.977 Y163.998 E127.91495
G1 X288.689 Y169.604 E128.43711
G1 X289.316 Y170.013 E128.47197
G1 X289.896 Y170.485 E128.50679
G1 X290.422 Y171.017 E128.54162
G1 X290.889 Y171.602 E128.57648
G1 X291.29 Y172.233 E128.61129
G1 X291.622 Y172.904 E128.64615
G1 X291.95 Y173.85 E128.69277
G1 X291.993 Y174.01 E128.70049
G1 X292.148 Y174.742 E128.73533
G1 X292.225 Y175.486 E128.77016
G1 X292.221 Y176.234 E128.80499
G1 X292.138 Y176.978 E128.83985
G1 X291.976 Y177.708 E128.87467
G1 X291.736 Y178.417 E128.90952
G1 X291.295 Y179.327 E128.95661
G1 X240.855 Y266.693 E133.65406
G1 X240.447 Y267.32 E133.68889
G1 X239.974 Y267.9 E133.72374
G1 X239.284 Y268.563 E133.7683
G1 X239.229 Y268.609 E133.77164
G1 X238.63 Y269.057 E133.80647
G1 X237.987 Y269.439 E133.84129
G1 X237.064 Y269.841 E133.88817
G1 X220.55 Y275.658 E134.70344
G1 X219.832 Y275.869 E134.73829
G1 X219.096 Y276.002 E134.77311
G1 X218.349 Y276.055 E134.80799
G1 X217.59 Y276.027 E134.84335
G1 X217.502 Y276.019 E134.84747
G1 X216.762 Y275.912 E134.88228
G1 X216.037 Y275.726 E134.91713
G1 X215.337 Y275.464 E134.95194
G1 X214.636 Y275.11 E134.98851
G1 X181.813 Y256.161 E136.75329
G1 X181.186 Y255.753 E136.78812
G1 X180.606 Y255.281 E136.82294
G1 X179.935 Y254.58 E136.86813
G1 X179.89 Y254.526 E136.8714
G1 X179.443 Y253.927 E136.9062
G1 X179.062 Y253.283 E136.94105
G1 X178.708 Y252.488 E136.98157
G1 X170.949 Y231.658 E138.0166
G1 X170.726 Y230.944 E138.05144
G1 X170.58 Y230.211 E138.08624
G1 X170.513 Y229.466 E138.12107
G1 X170.53 Y228.672 E138.15805
G1 X170.537 Y228.582 E138.16225
G1 X170.635 Y227.841 E138.19706
G1 X170.811 Y227.114 E138.23189
G1 X171.064 Y226.41 E138.26672
G1 X171.454 Y225.625 E138.30754
G1 X218.128 Y144.785 E142.65414
G1 X40.661 Y42.323 E152.19616
G1 X20.504 Y58.58 E153.40198
G1 X19.898 Y59.018 E153.4368
G1 X19.248 Y59.388 E153.47163
G1 X18.562 Y59.687 E153.50647
G1 X17.849 Y59.912 E153.54128
G1 X17.115 Y60.058 E153.57613
G1 X16.37 Y60.126 E153.61097
G1 X15.622 Y60.114 E153.6458
G1 X14.88 Y60.022 E153.68062
G1 X14.152 Y59.851 E153.71544
G1 X13.446 Y59.604 E153.75027
G1 X12.77 Y59.283 E153.78511
G1 X12.133 Y58.891 E153.81994
G1 X11.565 Y58.455 E153.85328
G1 X11.312 Y58.239 E153.86877
G1 X10.77 Y57.723 E153.90362
G1 X10.286 Y57.153 E153.93844
G1 X9.865 Y56.534 E153.9733
G1 X9.513 Y55.874 E154.00813
G1 X9.234 Y55.18 E154.04295
G1 X9.03 Y54.461 E154.07776
G1 X8.904 Y53.723 E154.11262
G1 X8.857 Y52.977 E154.14742
G1 X8.891 Y52.229 E154.18229
G1 X9.004 Y51.49 E154.2171
G1 X9.195 Y50.767 E154.25192
G1 X9.462 Y50.068 E154.28676
G1 X9.795 Y49.415 E154.32089
G1 X33.548 Y8.273 E156.533
G0 F6000 X33.894 Y8.473
G1 F1200 X34.291 Y7.865 E156.56681
G1 X34.753 Y7.304 E156.60065
G1 X35.274 Y6.797 E156.6345
G1 X35.847 Y6.351 E156.66831
G1 X36.465 Y5.97 E156.70212
G1 X37.122 Y5.66 E156.73594
G1 X37.897 Y5.399 E156.77402
G1 X38.057 Y5.356 E156.78174
G1 X38.768 Y5.207 E156.81556
G1 X39.491 Y5.136 E156.84939
G1 X40.217 Y5.145 E156.8832
G1 X40.938 Y5.234 E156.91703
G1 X41.645 Y5.402 E156.95087
G1 X42.329 Y5.646 E156.98468
G1 X43.07 Y6.014 E157.02321
G1 X49.97 Y9.998 E157.39421
G1 X50.315 Y9.99 E157.41028
G1 X51.039 Y10.053 E157.44412
G1 X51.751 Y10.196 E157.47793
G1 X52.443 Y10.416 E157.51175
G1 X52.949 Y10.633 E157.53738
G1 X254.066 Y106.906 E167.9199
G1 X254.516 Y107.143 E167.94358
G1 X264.382 Y112.838 E168.47402
G1 X264.99 Y113.235 E168.50784
G1 X265.55 Y113.697 E168.54164
G1 X266.057 Y114.217 E168.57546
G1 X266.504 Y114.79 E168.6093
G1 X266.884 Y115.409 E168.64312
G1 X267.195 Y116.065 E168.67692
G1 X267.456 Y116.841 E168.71505
G1 X267.499 Y117.001 E168.72276
G1 X267.648 Y117.712 E168.75659
G1 X267.719 Y118.435 E168.79041
G1 X267.71 Y119.161 E168.82422
G1 X267.621 Y119.882 E168.85805
G1 X267.453 Y120.589 E168.89189
G1 X267.209 Y121.273 E168.9257
G1 X266.841 Y122.014 E168.96423
G1 X207.12 Y225.453 E174.52592
G1 X228.585 Y237.847 E175.68007
G1 X269.602 Y166.804 E179.49989
G1 X269.999 Y166.196 E179.5337
G1 X270.461 Y165.635 E179.56754
G1 X270.982 Y165.128 E179.6014
G1 X271.555 Y164.682 E179.63521
G1 X272.173 Y164.301 E179.66901
G1 X272.83 Y163.991 E179.70284
G1 X273.605 Y163.73 E179.74092
G1 X273.765 Y163.687 E179.74863
G1 X274.476 Y163.538 E179.78246
G1 X275.199 Y163.467 E179.81629
G1 X275.925 Y163.476 E179.8501
G1 X276.646 Y163.565 E179.88392
G1 X277.353 Y163.733 E179.91776
G1 X278.037 Y163.977 E179.95158
